im/shuffle.svg

<svg version="1.1" xmlns="http://www.w3.org/2000/svg" viewBox="0 0 16 16" height="1em" width="1em">
  <path fill="#000000" d="M12 11h-1.586l-2.5-2.5 2.5-2.5h1.586v2.5l3.5-3.5-3.5-3.5v2.5h-2c-0.265 0-0.52 0.105-0.707 0.293l-2.793 2.793-2.793-2.793c-0.188-0.188-0.442-0.293-0.707-0.293h-3v2h2.586l2.5 2.5-2.5 2.5h-2.586v2h3c0.265 0 0.52-0.105 0.707-0.293l2.793-2.793 2.793 2.793c0.188 0.188 0.442 0.293 0.707 0.293h2v2.5l3.5-3.5-3.5-3.5v2.5z"/>
</svg>

<svg xmlns="http://www.w3.org/2000/svg" viewBox="0 0 16 16" height="1em" width="1em">
  <path d="M12 11h-1.586l-2.5-2.5 2.5-2.5H12v2.5L15.5 5 12 1.5V4h-2a.997.997 0 0 0-.707.293L6.5 7.086 3.707 4.293A1 1 0 0 0 3 4H0v2h2.586l2.5 2.5-2.5 2.5H0v2h3c.265 0 .52-.105.707-.293L6.5 9.914l2.793 2.793A1 1 0 0 0 10 13h2v2.5l3.5-3.5L12 8.5V11z"/>
</svg>
